X:37
T:Mazurka a Rigal
I:last changed 14/2/2016
F:http://www.campin.me.uk/Music/Edinbal.abc
L:1/8
M:3/4
K:GDor
GB|d3  d ed|B3d ed|A2 AB cA|   B2 A2
GB|d2^cd ed|B3d ed|A2 Ac AB|   G4   :|
GA|BA Bc AB|G3A GF|ED AB cA|   B2 A2
GA|BA Bc AB|G3A GF|ED Ac BA|[1 G3  D:|\
                            [2 G4   |]

